X:2417
T:Gnglt frn ppelbo
T:Ganglat Fran Appelbo
O:england
S:Dick Rutter, Edinburgh
M:2/4
L:1/8
K:G
D|GG/D/ GB|d3 B/c/|dd/b/ dd/e/|cc/B/ AA/B/|cc/d/ ed/c/|B/c/B/A/ GF/G/|
AA/F/ DE/F/|G3::B/d/|gg gf/e/|ff fg/f/|ee e/g/f/e/|
ed/^c/ d=c/B/|cc/B/ AG/A/|B/c/B/A/ GF/G/|AA/F/ DE/F/|G3:|]
